X:1
T:O Magnum Mysterium
T:O Magnum Mysterium
T:Soprano
T:Thomas Luis de Victoria
C:Thomas Luis de Victoria
L:1/8
M:4/4
K:Ab
V:1 treble nm="Piano" snm="Pno."
V:1
 c8 | F4 c4- | !breath!c2 c2 d2 d2 | c4 z2 f2 | d2 e2 f3 f | f2 c2 d2 c2- | cBAG ABcA | %7
w: O|ma- gnum|_ mys- te- ri-|um et|ad- mi- ra- bi-|le sa- cra- men|_ _ _ _ _ _ _ _|
 BAAG/F/ G4- | G4 !breath!F4 | =A8 | B4 =A3 B | !breath!c2 d3 c B2- | B2 =A2 B2 _AG | F2 G2 A4 | %14
w: |* tum,|O|ma- gnum _|_ mys _ _|_ _ te _ _|_ ri- um|
 z2 f2 d2 e2 | f3 f !breath!f2 d2 | B2 c2 d3 d | !breath!d2 c3 B B2- | B2 =A2 B4 | z8 | %20
w: et ad- mi-|ra- bi- le et|ad- mi- ra- bi-|le sa- cra- men|_ _ tum,||
 z2 d2 c3 A | B2 c2 !breath!d2 B2 | d3 d d2 d2 | !breath!c4 c4 | !breath!=A2 c2 c3 c | c2 =d2 e4 | %26
w: ut a- ni-|ma- li- a vi-|de- rent Do- mi-|num na-|tum, vi- de- rent|Do- mi- num|
 _d3 c/B/ c4 | d4 c4 | z8 | z2 F2 B4 | !breath!A2 F2 G2 =A2 | B3 c _d2 d2 | c4 z4 | z8 | z2 B2 e4 | %35
w: na _ _ _|_ tum,||ja- cen-|tem in prae _|se _ _ pi-|o,||ja- cen-|
 !breath!d2 B2 c2 =d2 | e3 d cB (B2 | B2) =AG A2 A2 | B4 z4 | =A6 A2 | =A4 B4 | =A3 B c2 (d2 | %42
w: tem in prae _|se _ _ _ _|_ _ _ _ pi-|o.|O be-|a- ta|Vir _ _ _|
 d)c c3 B B2 | !breath!c2 =A4 A2 | B3 B B4 | z2 B3 c dB | c2 f2 e4 | !breath!d2 f2 e2 c2 | %48
w: _ _ _ _ _|go cu- jus|vis- ce- ra|me _ _ _|_ ru- e-|runt por- ta- re|
 d3 c BA AG/F/ | G2 G2 F2 (c2 | c2) A4 (d2 | d)c B4 =A2 | !breath!B4 d2 c2- | c2 =A2 !breath!B3 A | %54
w: Do _ _ _ _ _ _|_ mi- num Je|_ sum Chri|_ _ _ _|stum. Al- le-|* lu- ia, Al|
 Bc d2 c4 | !breath!d4 B2 A2- | A2 F2 !breath!G3 F | GA B4 =A2 | B6 z2 | z2 e2 d3 c | dB c2 ABcd | %61
w: _ _ le- lu-|ia, Al- le-|* lu- ia, Al|_ _ le- lu-|ia,|Al- le _|_ _ _ lu _ _ _|
 e4 e2 d2 | f4 f4- | f4 z2 f2 | fedc B2 e2- | e d cB =A2 B2- | B2 =A2 (B4- | B4 (B4-) | B4 (B4-) | %69
w: ia, Al- le-|lu- ia!|* Al-|le _ _ _ _ lu|_ _ _ _ _ _|* * ia!|_ _||
 B4 B4-) | B4 z4 |] %71
w: ||

